X:322020
T: Sleepy Maggie
C: Traditional (1760 Oswald)
B: Scots Guard I(TBC)
H:
O:Kevin Fraser
Z:Kevin Fraser
Q:1/4=105
K:HP
M:2/2
L:1/8
R:Reel
U: R = ///
U: r = //
U: V = !accent!
V:M gstem=up stem=down name="Melody" sname="Melody" 
V:H gstem=up stem=down name="Harmony" sname="Harmony"
V:C gstem=up stem=down name="C-Harmony" sname="C-Harmony"
V:S gstem=up stem=down dyn=up stafflines=1 clef=perc middle=G name="Snare" sname="Snare" sname="Snare"
V:B gstem=up stem=down clef=none dyn=up name="Bass" sname="Bass"
V:T gstem=up stem=down clef=none dyn=up name="Tenor" sname="Tenor"
V:BB gstem=up stem=down name="Brass Bass" sname="ABCD-C" transpose=-1  octave=-1 clef=bass
V:BC gstem=up stem=down name="Brass Chord" sname="ABCD-D" transpose=-1
V:BD gstem=up stem=down name="Brass Chord 2" sname="ABCD-B" transpose=-1
V:P gstem=up stem=down name="Piano" octave=-1
I:MIDI=program 110
%%MIDI gracedivider 4
% %score {M S B T}
%%MIDI program 109 #bagpipes
%%MIDI vol 100
%%landscape
P: KSF
[V:M]|: {gef}e2 {g}Aa ed{g}Bd     | {gef}e2 {gf}g2 dG{g}Bd       | {gef}e2 {g}Aa ed{g}Bd     | {g}efge      {g}dG{g}Bd :|
w: hehe  hen I e a hoi a     | hehe     vivi  a em hio a    | hehe  hen I e a hoi a      | he vi di e   ha em hio a
[V:M]|: {g}eA{gAGAG}A2 {g}eA{g}Bd | {g}eA{gAGAG}A2 {g}B{e}G{g}Bd | {g}eA{gAGAG}A2 {g}eA{g}Bd | {g}efge      {g}dG{g}Bd :|
w: he en hararin  he en ho a | he en hararin  hio hem hio a |he en hararin   he en ho a | he vi di e   ha em hio a
[V:M]|: {gfg}f2{g}Ba fB{g}de      | {gfg}f2{g}Ba  eA{d}ce        | {gfg}f2{g}Ba  fB{g}de     | {g}fgaf      {g}eA{d}ce    :|
w: hihi  hoi I vi o ha e     | hihi  hoi I   e en dio e     | hihi  hoi I   vi o ha e   | chi di I vi  he en dio e
[V:M]|: {g}fB{gBeBG}B2 {g}fB{g}de | {g}fB{gBeBG}B2 {g}eA{g}ce    | {g}fB{gBeBG}B2 {g}fB{g}de | {g}fgaf      {g}eA{d}ce    :|
w: hi o  hotodimo hi o ha e  | hi o  hotodimo he en hio e   | hi o  hotodimo hi o ha e  | chi di I vi  he en dio e
P: Scots Guards
[V:M]|: {gef}e2 {g}Aa ed{g}Bd     | {gef}e2 {gf}g2 d{e}G{d}Bd    | {gef}e2 {g}Aa ed{g}Bd     | {g}ef{a}ge {g}d{e}G{d}Bd :|
[V:M]|: {g}eA{gAGAG}A2 {g}eA{d}Bd | {g}eA{gAGAG}A2 {g}B{e}G{d}Bd | {g}eA{gAGAG}A2 {g}eA{d}Bd | {g}ef{a}ge {g}d{e}G{d}Bd :|
[V:M]|: {gfg}f2{g}Ba fB{g}de      | {gfg}f2{g}Ba  eA{d}ce        | {gfg}f2{g}Ba fB{g}de      | {g}fgaf    {g}eA{d}ce    :|
[V:M]|: {g}fB{g}B{d}B {g}fB{g}de  | {g}fB{g}B{d}B {g}eA{d}ce     | {g}fB{g}B{d}B {g}fB{g}de  | {g}fgaf    {g}eA{d}ce    :|

